icons/24/home-filled.svg

<svg width="24" height="24" viewBox="0 0 24 24" xmlns="http://www.w3.org/2000/svg">
  <path fill-rule="evenodd" clip-rule="evenodd" d="M12.97 2.59C12.699 2.36026 12.3553 2.23416 12 2.23416C11.6447 2.23416 11.301 2.36026 11.03 2.59L3.53 8.954C3.36405 9.09469 3.2307 9.26979 3.13918 9.46716C3.04766 9.66453 3.00017 9.87945 3 10.097V19.5C3 19.8978 3.15804 20.2794 3.43934 20.5607C3.72064 20.842 4.10218 21 4.5 21H9.25C9.44891 21 9.63968 20.921 9.78033 20.7803C9.92098 20.6397 10 20.4489 10 20.25V14H14V20.25C14 20.664 14.336 21 14.75 21H19.5C19.8978 21 20.2794 20.842 20.5607 20.5607C20.842 20.2794 21 19.8978 21 19.5V10.097C20.9998 9.87945 20.9523 9.66453 20.8608 9.46716C20.7693 9.26979 20.6359 9.09469 20.47 8.954L19.985 9.525L20.471 8.954L12.971 2.59L12.485 3.162L12.971 2.59H12.97Z"/>
</svg>

<svg width="24" height="24" viewBox="0 0 24 24" xmlns="http://www.w3.org/2000/svg">
  <path fill-rule="evenodd" clip-rule="evenodd" d="M12.97 2.59a1.5 1.5 0 00-1.94 0l-7.5 6.364A1.5 1.5 0 003 10.097V19.5A1.5 1.5 0 004.5 21h4.75a.75.75 0 00.75-.75V14h4v6.25c0 .414.336.75.75.75h4.75a1.5 1.5 0 001.5-1.5v-9.403a1.5 1.5 0 00-.53-1.143l-.485.571.486-.571-7.5-6.364-.486.572.486-.572z"/>
</svg>
